svg/SJJB-OpenStreetMapIcons/shopping/estateagent2.svg

<?xml version="1.0" encoding="UTF-8" standalone="no"?>
<!-- Created with Inkscape (http://www.inkscape.org/) -->

<svg
   xmlns:dc="http://purl.org/dc/elements/1.1/"
   xmlns:cc="http://creativecommons.org/ns#"
   xmlns:rdf="http://www.w3.org/1999/02/22-rdf-syntax-ns#"
   xmlns:svg="http://www.w3.org/2000/svg"
   xmlns="http://www.w3.org/2000/svg"
   xmlns:sodipodi="http://sodipodi.sourceforge.net/DTD/sodipodi-0.dtd"
   xmlns:inkscape="http://www.inkscape.org/namespaces/inkscape"
   version="1.0"
   width="580"
   height="580"
   id="svg2"
   sodipodi:version="0.32"
   inkscape:version="0.48.0 r9654"
   sodipodi:docname="shopping_estateagent2.svg"
   inkscape:output_extension="org.inkscape.output.svg.inkscape">
  <defs
     id="defs4209">
    <inkscape:perspective
       sodipodi:type="inkscape:persp3d"
       inkscape:vp_x="0 : 290 : 1"
       inkscape:vp_y="0 : 1000 : 0"
       inkscape:vp_z="580 : 290 : 1"
       inkscape:persp3d-origin="290 : 193.33333 : 1"
       id="perspective4211" />
  </defs>
  <metadata
     id="metadata2975">
    <rdf:RDF>
      <cc:Work
         rdf:about="">
        <dc:format>image/svg+xml</dc:format>
        <dc:type
           rdf:resource="http://purl.org/dc/dcmitype/StillImage" />
        <cc:license
           rdf:resource="http://web.resource.org/cc/PublicDomain" />
        <dc:language>en</dc:language>
      </cc:Work>
    </rdf:RDF>
  </metadata>
  <sodipodi:namedview
     inkscape:window-height="978"
     inkscape:window-width="1400"
     inkscape:pageshadow="2"
     inkscape:pageopacity="0.0"
     guidetolerance="10.0"
     gridtolerance="10.0"
     objecttolerance="10.0"
     borderopacity="1.0"
     bordercolor="#666666"
     pagecolor="#ffffff"
     id="base"
     inkscape:zoom="0.92167712"
     inkscape:cx="288.18192"
     inkscape:cy="566.44805"
     inkscape:window-x="0"
     inkscape:window-y="45"
     inkscape:current-layer="svg2"
     showgrid="false"
     inkscape:window-maximized="0" />
  <g
     id="g1327">
    <path
       d="M 66.275,1.768 C 24.94,1.768 1.704,23.139 1.704,66.804 L 1.704,516.927 C 1.704,557.771 22.599,579.156 63.896,579.156 L 515.92,579.156 C 557.227,579.156 578.149,558.841 578.149,516.927 L 578.149,66.804 C 578.149,24.203 557.227,1.768 514.628,1.768 C 514.624,1.768 66.133,1.625 66.275,1.768 z"
       style="fill:#111111;stroke:#eeeeee;stroke-width:3.40799999"
       id="path1329" />
  </g>
  <g
     id="g3338"
     transform="matrix(1.3973279,-0.2437849,0.2437849,1.3973279,-185.07402,-56.183307)" />
  <g
     id="g9431"
     transform="matrix(1.1623201,0,0,1.1623201,-68.204104,89.76405)">
    <rect
       y="179.4391"
       x="404.43851"
       height="192.78864"
       width="5.2641773"
       id="rect3771"
       style="fill:#ffffff;fill-opacity:1;stroke:#ffffff;stroke-width:7.73715258;stroke-linecap:round;stroke-linejoin:round;stroke-miterlimit:4;stroke-opacity:1;stroke-dasharray:none;stroke-dashoffset:0" />
    <path
       sodipodi:nodetypes="ccccc"
       id="path3794"
       d="M 405.33873,192.36059 L 405.33873,272.55318 L 529.50584,272.55318 L 529.50584,192.36059 L 405.33873,192.36059 z"
       style="fill:#ffffff;fill-opacity:1;stroke:#ffffff;stroke-width:7.73715258;stroke-linecap:round;stroke-linejoin:round;stroke-miterlimit:4;stroke-opacity:1;stroke-dasharray:none;stroke-dashoffset:0" />
  </g>
  <path
     style="fill:#ffffff;fill-opacity:1;stroke:#ffffff;stroke-width:2.03705359;stroke-linecap:round;stroke-linejoin:round;stroke-miterlimit:4;stroke-opacity:1;stroke-dasharray:none;stroke-dashoffset:0"
     d="M 223.24261,71.952207 L 401.86677,250.75687 L 355.69292,250.69327 L 355.69292,441.60338 L 89.831749,441.60338 L 89.831749,250.37497 L 46.273573,250.31137 L 103.7567,189.65579 L 103.7567,107.82874 L 161.19228,107.82874 L 161.19228,136.98408 L 223.24261,71.952297 L 223.24261,71.952207 z"
     id="path8920"
     sodipodi:nodetypes="ccccccccccccc" />
</svg>

<svg xmlns="http://www.w3.org/2000/svg" viewBox="0 0 580 580"><path d="m66.28 1.768c-41.34 0-64.57 21.371-64.57 65.04v450.12c0 40.844 20.895 62.23 62.19 62.23h452.02c41.31 0 62.23-20.315 62.23-62.23v-450.12c0-42.601-20.922-65.04-63.52-65.04-.004 0-448.5-.143-448.35 0z" fill="#111" stroke="#eee" stroke-width="3.408"/><g transform="matrix(1.16232 0 0 1.16232-68.2 89.76)" fill="#fff" stroke="#fff" stroke-linejoin="round" stroke-linecap="round" stroke-width="7.737"><path d="m404.44 179.44h5.264v192.79h-5.264z"/><path d="m405.34 192.36v80.19h124.17v-80.19h-124.17z"/></g><path d="m223.24 71.952l178.62 178.8-46.17-.064v190.91h-265.86v-191.23l-43.558-.064 57.48-60.66v-81.83h57.44v29.16l62.05-65.03z" fill="#fff" stroke="#fff" stroke-linejoin="round" stroke-linecap="round" stroke-width="2.037"/></svg>
